X: 37799
T: Sonny Brogan's
R: jig
M: 6/8
K: Adorian
|:E|A^GA cBc|d^cd e^de|A^GA cde|dcA AGE|
A2 A c2 c|d^cd e2 e|aba ged|cA^G A2:|
|:g|e2 a aba|gef ged|e2 a aba|gef g2 a|
eaa a^ga|gef ge/f/g|aba ged|cA^G A2:|

